X: 1774
T: Apsley Cottage, The
R: jig
M: 6/8
K: Amajor
|:~c3 cBc|ecA BAE|~F3 FEF|ABc B2A|
~c3 cBc|ecA BAE|~F3 F2a|fec B2A:|
~F3 FEF|ABc c2B|ABA ABc|ABB BAE|
~F3 FEF|ABc c2B|ABA Aa^g|fec B2A|
~F3 FEF|ABc c2B|ABA ABc|BAB Bce|
az^g- gag|fec fec|AB2 BAB|cec f2e||

